X: 16157
T: Green Lands
R: strathspey
M: 4/4
K: Amajor
|:B>c|A>B c<e e2 c>e|f>a f<e e2 B>c|A>B c<e f<e c<A|B6:|
|:a2|f>e f<a a2 a2|f>e f<c c2 a>f|e>f a>B c<e c<A|B6:|

